Sources/FrostedUI/Resources/Icons.xcassets/gifFilled16.imageset/gif-filled-16.svg

<svg width="16" height="16" viewBox="0 0 16 16" fill="none" xmlns="http://www.w3.org/2000/svg" data-fui-icon="true">
  <path
    d="M8 0C9.19328 0 10.1298 -0.000248829 10.8838 0.0566406C11.6455 0.114121 12.2819 0.233017 12.8652 0.503906C14.0253 1.04272 14.9573 1.97474 15.4961 3.13477C15.767 3.71806 15.8859 4.35446 15.9434 5.11621C16.0002 5.87017 16 6.80672 16 8C16 9.19328 16.0002 10.1298 15.9434 10.8838C15.8859 11.6455 15.767 12.2819 15.4961 12.8652C14.9573 14.0253 14.0253 14.9573 12.8652 15.4961C12.2819 15.767 11.6455 15.8859 10.8838 15.9434C10.1298 16.0002 9.19328 16 8 16C6.80672 16 5.87017 16.0002 5.11621 15.9434C4.35446 15.8859 3.71806 15.767 3.13477 15.4961C1.97474 14.9573 1.04272 14.0253 0.503906 12.8652C0.233017 12.2819 0.114121 11.6455 0.0566406 10.8838C-0.000248829 10.1298 0 9.19328 0 8C0 6.80672 -0.000248861 5.87017 0.0566406 5.11621C0.114121 4.35446 0.233017 3.71806 0.503906 3.13477C1.04272 1.97474 1.97474 1.04272 3.13477 0.503906C3.71806 0.233017 4.35446 0.114121 5.11621 0.0566406C5.87017 -0.000248861 6.80672 0 8 0ZM4.73828 5.25098C3.50214 5.25104 2.50006 6.25312 2.5 7.48926V8.33984C2.50026 9.66853 3.5775 10.7461 4.90625 10.7461C5.94382 10.7461 6.7847 9.90465 6.78516 8.86719V8.68652C6.78496 8.03146 6.25374 7.50098 5.59863 7.50098H5.5C5.08579 7.50098 4.75 7.83676 4.75 8.25098C4.75043 8.58476 4.96976 8.86412 5.27148 8.96094C5.22929 9.12434 5.08283 9.24607 4.90625 9.24609C4.40593 9.24609 4.00026 8.8401 4 8.33984V7.48926C4.00006 7.08154 4.33057 6.75104 4.73828 6.75098C5.08148 6.75098 5.27076 6.83819 5.35645 6.89062C5.40192 6.91852 5.42808 6.94267 5.43652 6.95117L5.45898 6.98047C5.70181 7.27252 6.13197 7.33935 6.4541 7.12305C6.7976 6.89205 6.88888 6.42572 6.6582 6.08203L6.15137 6.42285C6.61755 6.10952 6.65452 6.08347 6.65723 6.08105V6.08008L6.65527 6.0791C6.65458 6.07808 6.65399 6.07634 6.65332 6.0752C6.65175 6.07291 6.65018 6.06992 6.64844 6.06738C6.64476 6.06215 6.64029 6.05598 6.63574 6.0498C6.62656 6.03733 6.61537 6.02269 6.60254 6.00684C6.57662 5.97482 6.54209 5.93597 6.5 5.89355C6.41556 5.80855 6.29657 5.70797 6.13867 5.61133C5.81618 5.414 5.35645 5.25098 4.73828 5.25098ZM8.29492 5.25098C7.88076 5.25103 7.54492 5.5868 7.54492 6.00098V9.99609C7.5452 10.41 7.88093 10.746 8.29492 10.7461C8.70896 10.7461 9.04464 10.4101 9.04492 9.99609V6.00098C9.04492 5.58676 8.70914 5.25098 8.29492 5.25098ZM11.2002 5.25098C10.5098 5.25098 9.9502 5.81062 9.9502 6.50098V9.99609C9.95048 10.4101 10.2862 10.7461 10.7002 10.7461C11.1141 10.746 11.4499 10.41 11.4502 9.99609V8.74805H12.4365C12.8503 8.74773 13.1863 8.41184 13.1865 7.99805C13.1863 7.58425 12.8503 7.24836 12.4365 7.24805H11.4502V6.75098H12.751C13.1649 6.75087 13.5007 6.4149 13.501 6.00098C13.501 5.58683 13.1651 5.25108 12.751 5.25098H11.2002Z"
    fill="currentColor"
  />
</svg>

<svg xmlns="http://www.w3.org/2000/svg" width="16" height="16" fill="none" data-fui-icon="true" viewBox="0 0 16 16"><path fill="currentColor" d="M8 0c1.193 0 2.13 0 2.884.057.761.057 1.398.176 1.981.447a5.42 5.42 0 0 1 2.631 2.63c.271.584.39 1.22.447 1.982C16 5.87 16 6.806 16 8s0 2.13-.057 2.884c-.057.761-.176 1.398-.447 1.981a5.42 5.42 0 0 1-2.63 2.631c-.584.271-1.22.39-1.982.447C10.13 16 9.194 16 8 16s-2.13 0-2.884-.057c-.762-.057-1.398-.176-1.981-.447a5.42 5.42 0 0 1-2.631-2.63c-.271-.584-.39-1.22-.447-1.982C0 10.13 0 9.194 0 8s0-2.13.057-2.884c.057-.762.176-1.398.447-1.981A5.42 5.42 0 0 1 3.134.504c.584-.271 1.22-.39 1.982-.447C5.87 0 6.806 0 8 0M4.738 5.251A2.24 2.24 0 0 0 2.5 7.489v.85a2.407 2.407 0 0 0 2.406 2.407 1.88 1.88 0 0 0 1.88-1.879v-.18C6.784 8.03 6.253 7.5 5.598 7.5H5.5a.747.747 0 0 0-.229 1.46.38.38 0 0 1-.365.285A.907.907 0 0 1 4 8.34v-.85c0-.408.33-.739.738-.739.343 0 .533.087.618.14a.5.5 0 0 1 .08.06l.023.03a.751.751 0 0 0 1.2-.899l-.508.34c.467-.312.504-.339.506-.34V6.08h-.002l-.002-.005-.005-.008-.045-.06a1.929 1.929 0 0 0-.464-.396c-.323-.197-.783-.36-1.4-.36m3.557 0a.75.75 0 0 0-.75.75v3.995a.75.75 0 0 0 1.5 0V6.001a.75.75 0 0 0-.75-.75m2.905 0c-.69 0-1.25.56-1.25 1.25v3.495a.75.75 0 0 0 1.5 0V8.748h.987a.75.75 0 0 0 0-1.5h-.987v-.497h1.301a.75.75 0 0 0 0-1.5z"/></svg>
